boxicons/svg/regular/bx-buildings.svg

<svg xmlns="http://www.w3.org/2000/svg" width="24" height="24" viewBox="0 0 24 24"><path d="M19 2H9c-1.103 0-2 .897-2 2v6H5c-1.103 0-2 .897-2 2v9a1 1 0 0 0 1 1h16a1 1 0 0 0 1-1V4c0-1.103-.897-2-2-2zM5 12h6v8H5v-8zm14 8h-6v-8c0-1.103-.897-2-2-2H9V4h10v16z"/><path d="M11 6h2v2h-2zm4 0h2v2h-2zm0 4.031h2V12h-2zM15 14h2v2h-2zm-8 .001h2v2H7z"/></svg>

<svg xmlns="http://www.w3.org/2000/svg" width="24" height="24" viewBox="0 0 24 24"><path d="M19,2H9C7.897,2,7,2.897,7,4v6H5c-1.103,0-2,0.897-2,2v9c0,0.552,0.447,1,1,1h8h8c0.553,0,1-0.448,1-1V4 C21,2.897,20.103,2,19,2z M5,12h3h3v2v2v4H5V12z M19,20h-6v-4v-2v-2c0-1.103-0.897-2-2-2H9V4h10V20z"/><path d="M11 6H13V8H11zM15 6H17V8H15zM15 10.031H17V12H15zM15 14H17V16H15zM7 14.001H9V16.000999999999998H7z"/></svg>
